src/assets/svg/icons/B.svg

<svg width="35" height="37" viewBox="0 0 35 37" fill="none" xmlns="http://www.w3.org/2000/svg">
<circle cx="17.5" cy="19.5" r="17.5" fill="#FFD234"/>
<path d="M10.2955 31V7.72727H19.2045C20.8864 7.72727 22.2841 7.99242 23.3977 8.52273C24.5189 9.04545 25.3561 9.76136 25.9091 10.6705C26.4697 11.5795 26.75 12.6098 26.75 13.7614C26.75 14.7083 26.5682 15.5189 26.2045 16.1932C25.8409 16.8598 25.3523 17.4015 24.7386 17.8182C24.125 18.2348 23.4394 18.5341 22.6818 18.7159V18.9432C23.5076 18.9886 24.2992 19.2424 25.0568 19.7045C25.822 20.1591 26.447 20.803 26.9318 21.6364C27.4167 22.4697 27.6591 23.4773 27.6591 24.6591C27.6591 25.8636 27.3674 26.947 26.7841 27.9091C26.2008 28.8636 25.322 29.6174 24.1477 30.1705C22.9735 30.7235 21.4962 31 19.7159 31H10.2955ZM14.5114 27.4773H19.0455C20.5758 27.4773 21.678 27.1856 22.3523 26.6023C23.0341 26.0114 23.375 25.2538 23.375 24.3295C23.375 23.6402 23.2045 23.0189 22.8636 22.4659C22.5227 21.9053 22.0379 21.4659 21.4091 21.1477C20.7803 20.822 20.0303 20.6591 19.1591 20.6591H14.5114V27.4773ZM14.5114 17.625H18.6818C19.4091 17.625 20.0644 17.4924 20.6477 17.2273C21.2311 16.9545 21.6894 16.572 22.0227 16.0795C22.3636 15.5795 22.5341 14.9886 22.5341 14.3068C22.5341 13.4053 22.2159 12.6629 21.5795 12.0795C20.9508 11.4962 20.0152 11.2045 18.7727 11.2045H14.5114V17.625Z" fill="black"/>
</svg>

<svg width="35" height="37" fill="none" xmlns="http://www.w3.org/2000/svg"><circle cx="17.5" cy="19.5" r="17.5" fill="#FFD234"/><path d="M10.296 31V7.727h8.909c1.681 0 3.08.265 4.193.796 1.12.522 1.958 1.238 2.511 2.148.56.909.841 1.939.841 3.09 0 .947-.182 1.758-.546 2.432a4.587 4.587 0 0 1-1.465 1.625c-.614.417-1.3.716-2.057.898v.227c.826.046 1.617.3 2.375.761.765.455 1.39 1.099 1.875 1.932.485.834.727 1.841.727 3.023 0 1.205-.292 2.288-.875 3.25-.583.955-1.462 1.708-2.636 2.262-1.174.553-2.652.829-4.432.829h-9.42zm4.215-3.523h4.535c1.53 0 2.632-.291 3.306-.875.682-.59 1.023-1.348 1.023-2.273 0-.689-.17-1.31-.511-1.863-.341-.56-.826-1-1.455-1.318-.629-.326-1.379-.489-2.25-.489h-4.648v6.818zm0-9.852h4.17c.728 0 1.383-.133 1.967-.398a3.311 3.311 0 0 0 1.375-1.148c.34-.5.511-1.09.511-1.772 0-.902-.318-1.644-.954-2.228-.63-.583-1.565-.875-2.807-.875H14.51v6.421z" fill="#000"/></svg>
